images/faq-func.svg

<svg width="49" height="36" viewBox="0 0 49 36" fill="none" xmlns="http://www.w3.org/2000/svg">
<mask id="path-1-outside-1" maskUnits="userSpaceOnUse" x="-0.198242" y="-0.478516" width="49" height="36" fill="black">
<rect fill="white" x="-0.198242" y="-0.478516" width="49" height="36"/>
<path fill-rule="evenodd" clip-rule="evenodd" d="M47.8018 4.52148C47.8018 2.31235 46.0109 0.521484 43.8018 0.521484H4.80176C2.59262 0.521484 0.801758 2.31235 0.801758 4.52149V30.9615C0.801758 33.1706 2.59262 34.9615 4.80176 34.9615H43.8018C46.0109 34.9615 47.8018 33.1706 47.8018 30.9615V4.52148ZM5.02051 2.85645C3.91594 2.85645 3.02051 3.75188 3.02051 4.85645V30.6266C3.02051 31.7312 3.91594 32.6266 5.02051 32.6266H43.7249C44.8294 32.6266 45.7249 31.7312 45.7249 30.6266V4.85645C45.7249 3.75188 44.8294 2.85645 43.7249 2.85645H5.02051Z"/>
</mask>
<path fill-rule="evenodd" clip-rule="evenodd" d="M47.8018 4.52148C47.8018 2.31235 46.0109 0.521484 43.8018 0.521484H4.80176C2.59262 0.521484 0.801758 2.31235 0.801758 4.52149V30.9615C0.801758 33.1706 2.59262 34.9615 4.80176 34.9615H43.8018C46.0109 34.9615 47.8018 33.1706 47.8018 30.9615V4.52148ZM5.02051 2.85645C3.91594 2.85645 3.02051 3.75188 3.02051 4.85645V30.6266C3.02051 31.7312 3.91594 32.6266 5.02051 32.6266H43.7249C44.8294 32.6266 45.7249 31.7312 45.7249 30.6266V4.85645C45.7249 3.75188 44.8294 2.85645 43.7249 2.85645H5.02051Z" fill="#36A6F2"/>
<path d="M4.80176 0.821484H43.8018V0.221484H4.80176V0.821484ZM1.10176 30.9615V4.52149H0.501758V30.9615H1.10176ZM43.8018 34.6615H4.80176V35.2615H43.8018V34.6615ZM47.5018 4.52148V30.9615H48.1018V4.52148H47.5018ZM3.32051 4.85645C3.32051 3.91756 4.08162 3.15645 5.02051 3.15645V2.55645C3.75025 2.55645 2.72051 3.58619 2.72051 4.85645H3.32051ZM3.32051 30.6266V4.85645H2.72051V30.6266H3.32051ZM5.02051 32.3266C4.08162 32.3266 3.32051 31.5655 3.32051 30.6266H2.72051C2.72051 31.8969 3.75025 32.9266 5.02051 32.9266V32.3266ZM43.7249 32.3266H5.02051V32.9266H43.7249V32.3266ZM45.4249 30.6266C45.4249 31.5655 44.6637 32.3266 43.7249 32.3266V32.9266C44.9951 32.9266 46.0249 31.8969 46.0249 30.6266H45.4249ZM45.4249 4.85645V30.6266H46.0249V4.85645H45.4249ZM43.7249 3.15645C44.6637 3.15645 45.4249 3.91756 45.4249 4.85645H46.0249C46.0249 3.58619 44.9951 2.55645 43.7249 2.55645V3.15645ZM5.02051 3.15645H43.7249V2.55645H5.02051V3.15645ZM43.8018 35.2615C46.1766 35.2615 48.1018 33.3363 48.1018 30.9615H47.5018C47.5018 33.0049 45.8452 34.6615 43.8018 34.6615V35.2615ZM0.501758 30.9615C0.501758 33.3363 2.42693 35.2615 4.80176 35.2615V34.6615C2.7583 34.6615 1.10176 33.0049 1.10176 30.9615H0.501758ZM43.8018 0.821484C45.8452 0.821484 47.5018 2.47803 47.5018 4.52148H48.1018C48.1018 2.14666 46.1766 0.221484 43.8018 0.221484V0.821484ZM4.80176 0.221484C2.42693 0.221484 0.501758 2.14667 0.501758 4.52149H1.10176C1.10176 2.47804 2.7583 0.821484 4.80176 0.821484V0.221484Z" fill="#36A6F2" mask="url(#path-1-outside-1)"/>
<circle cx="10.6455" cy="16.7182" r="1.73784" fill="#36A6F2" stroke="#36A6F2" stroke-width="0.3"/>
<rect x="18.435" y="14.9799" width="21.8946" height="3.47568" rx="1.73784" fill="#36A6F2" stroke="#36A6F2" stroke-width="0.3"/>
<circle cx="10.6455" cy="24.9746" r="1.73784" fill="#36A6F2" stroke="#36A6F2" stroke-width="0.3"/>
<rect x="18.435" y="23.2367" width="21.8946" height="3.47568" rx="1.73784" fill="#36A6F2" stroke="#36A6F2" stroke-width="0.3"/>
</svg>

<svg width="49" height="36" fill="none" xmlns="http://www.w3.org/2000/svg"><mask id="a" maskUnits="userSpaceOnUse" x="-.198" y="-.479" width="49" height="36" fill="#000"><path fill="#fff" d="M-.198-.479h49v36h-49z"/><path fill-rule="evenodd" clip-rule="evenodd" d="M47.802 4.521a4 4 0 00-4-4h-39a4 4 0 00-4 4v26.44a4 4 0 004 4h39a4 4 0 004-4V4.521zM5.02 2.856a2 2 0 00-2 2v25.77a2 2 0 002 2h38.704a2 2 0 002-2V4.857a2 2 0 00-2-2H5.02z"/></mask><path fill-rule="evenodd" clip-rule="evenodd" d="M47.802 4.521a4 4 0 00-4-4h-39a4 4 0 00-4 4v26.44a4 4 0 004 4h39a4 4 0 004-4V4.521zM5.02 2.856a2 2 0 00-2 2v25.77a2 2 0 002 2h38.704a2 2 0 002-2V4.857a2 2 0 00-2-2H5.02z" fill="#36A6F2"/><path d="M4.802.821h39v-.6h-39v.6zm-3.7 30.14V4.521h-.6v26.44h.6zm42.7 3.7h-39v.6h39v-.6zm3.7-30.14v26.44h.6V4.521h-.6zM3.32 4.856a1.7 1.7 0 011.7-1.7v-.6a2.3 2.3 0 00-2.3 2.3h.6zm0 25.77V4.857h-.6v25.77h.6zm1.7 1.7a1.7 1.7 0 01-1.7-1.7h-.6a2.3 2.3 0 002.3 2.3v-.6zm38.704 0H5.02v.6h38.704v-.6zm1.7-1.7a1.7 1.7 0 01-1.7 1.7v.6a2.3 2.3 0 002.3-2.3h-.6zm0-25.77v25.77h.6V4.857h-.6zm-1.7-1.7a1.7 1.7 0 011.7 1.7h.6a2.3 2.3 0 00-2.3-2.3v.6zm-38.704 0h38.704v-.6H5.02v.6zM43.8 35.261a4.3 4.3 0 004.3-4.3h-.6a3.7 3.7 0 01-3.7 3.7v.6zm-43.3-4.3a4.3 4.3 0 004.3 4.3v-.6a3.7 3.7 0 01-3.7-3.7h-.6zm43.3-30.14a3.7 3.7 0 013.7 3.7h.6a4.3 4.3 0 00-4.3-4.3v.6zm-39-.6a4.3 4.3 0 00-4.3 4.3h.6a3.7 3.7 0 013.7-3.7v-.6z" fill="#36A6F2" mask="url(#a)"/><circle cx="10.646" cy="16.718" r="1.738" fill="#36A6F2" stroke="#36A6F2" stroke-width=".3"/><rect x="18.435" y="14.98" width="21.895" height="3.476" rx="1.738" fill="#36A6F2" stroke="#36A6F2" stroke-width=".3"/><circle cx="10.646" cy="24.975" r="1.738" fill="#36A6F2" stroke="#36A6F2" stroke-width=".3"/><rect x="18.435" y="23.237" width="21.895" height="3.476" rx="1.738" fill="#36A6F2" stroke="#36A6F2" stroke-width=".3"/></svg>
